vsi/repo-force-push_dark.svg

<svg viewBox="0 0 16 16" fill="none" xmlns="http://www.w3.org/2000/svg" height="1em" width="1em">
  <path fill-rule="evenodd" clip-rule="evenodd" d="M3.74003 1H13.5L14 1.5V13.5L13.5 14H10V13H13V11H10V10H13V2H4.00003V10H7.00003V11H4.00003H3.74003H3.7399C3.64192 11 3.54491 11.0195 3.45451 11.0573C3.36408 11.0951 3.28205 11.1505 3.2132 11.2203C3.14435 11.29 3.09006 11.3728 3.05346 11.4637C3.01687 11.5547 2.9987 11.652 3.00003 11.75V12.25C2.9987 12.348 3.01687 12.4453 3.05346 12.5363C3.09006 12.6272 3.14435 12.71 3.2132 12.7797C3.28205 12.8495 3.36408 12.9049 3.45451 12.9427C3.54495 12.9805 3.642 13 3.74003 13H7.00003V14H3.74003C3.51068 14 3.2836 13.9547 3.07184 13.8666C2.86008 13.7785 2.66782 13.6495 2.50611 13.4868C2.34441 13.3242 2.21645 13.1312 2.1296 12.9189C2.04274 12.7067 1.99871 12.4793 2.00003 12.25V2.75C1.99871 2.52066 2.04274 2.29332 2.1296 2.08106C2.21645 1.8688 2.34441 1.6758 2.50611 1.51316C2.66782 1.35053 2.86008 1.22147 3.07184 1.1334C3.2836 1.04533 3.51068 0.999996 3.74003 1ZM5.34003 5.83L6.05003 6.53L8.00003 4.58V6.03L5.38003 8.65L6.09003 9.35L8.01003 7.43V15H9.01003V7.32819L11.04 9.35L11.74 8.65L9.00003 5.90028V4.53806L11 6.53L11.7 5.83L8.88003 3H8.17003L5.34003 5.83Z" fill="#C5C5C5"/>
</svg>

<svg viewBox="0 0 16 16" fill="none" xmlns="http://www.w3.org/2000/svg" height="1em" width="1em">
  <path fill-rule="evenodd" clip-rule="evenodd" d="M3.74 1h9.76l.5.5v12l-.5.5H10v-1h3v-2h-3v-1h3V2H4v8h3v1H3.74a.74.74 0 0 0-.74.75v.5a.74.74 0 0 0 .74.75H7v1H3.74A1.74 1.74 0 0 1 2 12.25v-9.5A1.74 1.74 0 0 1 3.74 1Zm1.6 4.83.71.7L8 4.58v1.45L5.38 8.65l.71.7 1.92-1.92V15h1V7.328l2.03 2.022.7-.7L9 5.9V4.538l2 1.992.7-.7L8.88 3h-.71L5.34 5.83Z" fill="#C5C5C5"/>
</svg>
